Origami/64x64/apps/miro.svg

<svg width="64" height="64" version="1" xmlns="http://www.w3.org/2000/svg">
 <path d="m4 56v2c0 1.662 1.338 3 3 3h50c1.662 0 3-1.338 3-3v-2c0 1.662-1.338 3-3 3h-50c-1.662 0-3-1.338-3-3z" style="opacity:.2"/>
 <rect transform="matrix(0,-1,-1,0,0,0)" x="-60" y="-60" width="56" height="56" rx="3" ry="3" style="fill:#c2352a"/>
 <path d="m7 4c-1.662 0-3 1.338-3 3v1c0-1.662 1.338-3 3-3h50c1.662 0 3 1.338 3 3v-1c0-1.662-1.338-3-3-3h-50z" style="fill:#ffffff;opacity:.1"/>
 <path d="m16 19v28h8v-18h4v18h8v-18h4v18h8v-23.1c0-2.744-2.054-4.9-4.666-4.9" style="opacity:.2"/>
 <path d="m16 18v28h8v-18h4v18h8v-18h4v18h8v-23.1c0-2.744-2.054-4.9-4.666-4.9" style="fill:#ffffff"/>
</svg>

<svg xmlns="http://www.w3.org/2000/svg" width="64" height="64" version="1">
 <path style="opacity:0.2" d="m 4,56 0,2 c 0,1.662 1.338,3 3,3 l 50,0 c 1.662,0 3,-1.338 3,-3 l 0,-2 c 0,1.662 -1.338,3 -3,3 L 7,59 C 5.338,59 4,57.662 4,56 Z"/>
 <rect style="fill:#c2352a" width="56" height="56" x="-60" y="-60" rx="3" ry="3" transform="matrix(0,-1,-1,0,0,0)"/>
 <path style="opacity:0.1;fill:#ffffff" d="M 7 4 C 5.338 4 4 5.338 4 7 L 4 8 C 4 6.338 5.338 5 7 5 L 57 5 C 58.662 5 60 6.338 60 8 L 60 7 C 60 5.338 58.662 4 57 4 L 7 4 z"/>
 <path style="opacity:0.2" d="m 16,19 0,28 8,0 0,-18 4,0 0,18 8,0 0,-18 4,0 0,18 8,0 0,-23.1 C 48,21.156 45.946,19 43.334,19"/>
 <path style="fill:#ffffff" d="m 16,18 0,28 8,0 0,-18 4,0 0,18 8,0 0,-18 4,0 0,18 8,0 0,-23.1 C 48,20.156 45.946,18 43.334,18"/>
</svg>
